X:1
T:Title
%%score ( 1 2 ) ( 3 4 )
L:1/8
Q:1/4=100
M:4/4
K:E
V:1 treble nm="Midi_20"
V:2 treble 
V:3 bass nm="Midi_20"
V:4 bass 
V:1
"^Vexillum (6 5. 65. D. and refrain)""^Henry Smart\n(1813-1879)""^Thomas Joseph Foster\n(1827-73) and others""^Brightly gleams our banner" G2 A2 B2 B2 | %1
w: |
w: |
w: |
w: |
w: |
w: |
 e4 B4 | G2 A2 B2 F2 | G8 || E2 F2 G2 B2 | e4 (d2 B2) | G2 G2 ^A2 c2 | B8 || F2 F2 G2 =A2 | B4 c4 | %10
w: ||||* diers, *|||March- ing through the|de- sert,|
w: ||||* ing, *|||Of- ten have we|left Thee,|
w: ||||* ly, *|||In the hour of|dan- ger|
w: ||||* ious *|||When the march is|o- ver,|
w: |||||||||
w: |||||||||
 A2 c2 B2 G2 | A8 || A2 A2 B2 B2 | c4 e4 | c2 B2 A2 G2 | (F4 B4) || B2 B2 B2 B2 | e4 B4 | %18
w: Glad- ly thus we|pray,|||||||
w: Of- ten gone a-||||||||
w: Whi- ther can we|stray;|||||||
w: Then some rest and||||||||
w: |flee,|||||||
w: |peace,|||||||
 G2 A2 B2 F2 | G8 | G2 B2 e2 d2 | c4 B4 | E2 A2 G2 F2 | E8 |] %24
w: ||||||
w: ||||||
w: ||||||
w: ||||||
w: ||||||
w: ||||||
V:2
 E2 D2 E2 D2 | (E2 G2) (F2 D2) | E2 E2 E2 D2 | E8 || E2 D2 E2 F2 | (E2 G2) F4 | E2 E2 E2 E2 | D8 || %8
w: Bright- ly gleams our|ban\- * ner, *|Point- ing to the|sky,|Wav- ing on Christ's|sol\- * *|To their home on|high.|
w: Je- sus, Lord and|Mas\- * ter, *|At Thy sac- red|feet,|Here, with hearts re-|joic\- * *|See Thy child- ren|meet.|
w: Pat- tern of our|child\- * hood, *|Once Thy- self a|child,|Make our child- hood|ho\- * *|Pure, and meek, and|mild.|
w: All our days dir-|ect * us *|In the way we|go;|Crown us still vic-|tor\- * *|O- ver eve- ry|foe;|
 D2 D2 ^E2 F2 | G4 G4 | F2 F2 G2 ^E2 | F8 || C2 E2 F2 E2 | E4 E4 | E2 ^E2 F2 =E2 | (E4 D4) || %16
w: ||||||||
w: ||||||||
w: ||||||||
w: ||||||||
 E2 E2 F2 D2 | (E2 G2) (F2 D2) | E2 E2 E2 D2 | E8 | E2 F2 E2 E2 | E4 D4 | E2 F2 E2 D2 | E8 |] %24
w: Bright- ly gleams our|ban\- * ner, *|Point- ing to the|sky,|||||
w: ||||||||
w: ||||||||
w: ||||||||
V:3
 B,2 B,2 B,2 B,2 | B,4 B,4 | B,2 C2 B,2 B,2 | B,8 || B,2 B,2 B,2 F,2 | (G,2 ^A,2) B,4 | %6
w: ||||||
w: ||||||
w: ||||||
w: ||||||
 B,2 C2 C2 ^A,2 | B,8 || B,2 B,2 B,2 C2 | =D4 G,4 | C2 C2 =D2 C2 | C8 || A,2 A,2 A,2 G,2 | %13
w: ||||||Still with hearts u-|
w: ||||||Keep us, migh- ty|
w: ||||||Save to Thee, dear|
w: ||||||Je- sus in His|
 A,4 B,4 | A,2 G,2 A,2 C2 | (F,6 A,2) || G,2 B,2 D2 F2 | B,4 B,4 | B,2 C2 B,2 B,2 | B,8 | %20
w: ni- ted|Sing- ing on our|way. *|||||
w: Sa- viour,|In the nar- row|way. *|||||
w: Sa- viour,|On- ly un- to|Thee? *|||||
w: beau- ty,|Songs that ne- ver|cease. *|||||
 B,2 F,2 G,A, B,2 | A,4 F,4 | E,2 C2 B,2 A,2 | G,8 |] %24
w: Wav- ing on * Christ's|sol- diers|To their home on|high.|
w: ||||
w: ||||
w: ||||
V:4
 E,2 F,2 G,2 A,2 | (G,2 E,2) (D,2 B,,2) | E,2 C,2 G,,2 B,,2 | E,8 || G,2 F,2 E,2 D,2 | C,4 D,4 | %6
 E,2 C,2 F,2 F,2 | B,,8 || B,2 A,2 G,2 F,2 | F,4 ^E,4 | F,2 A,,2 B,,2 C,2 | F,8 || %12
 F,2 C,2 =D,2 E,2 | A,,4 G,,4 | A,,2 C,2 F,2 A,,2 | B,,8 || E,2 G,2 B,2 A,2 | %17
 (G,2 E,2) (D,2 B,,2) | E,2 C,2 G,,2 B,,2 | E,8 | E,2 D,2 C,2 G,,2 | A,,4 B,,4 | %22
 C,2 A,,2 B,,2 B,,2 | E,8 |] %24

